X:13567
T:Pretty Maggie Morrisey
M:4/4
L:1/8
C:Trad
R:Hornpipe
K:G
Bc | dBGB cAFA | 3GFG AF GABc | dgfg efge | dBGB A2 Bc | dBGB cAGA | 3GF
G AF GABc | dgfg ecAF | G2B2G2 :|
|:Bc | dgfg egfg | dgfg egfg | dgfg efge | dBGB A2 Bc | dBGB cAFA | 3GFG
 AF GABc | dgfg ecAF | G2B2G2 :|
